X: 28808
T: My Mind Will Never Be Easy
R: slip jig
M: 9/8
K: Adorian
gf|:edB BAB G2A|~B2d deB dgf|edB BAB G2A|1 ~B2e efd egf:|2 ~B2e efd e2B||
def gaf g2e|~B2d deB dgf|efg agf edc|~B2e efd e2B|
def gaf g2e|~B2d deB dfg|agf gfe fed|~B2e efd egf||

